img/icon-1.svg

<svg fill="none" height="61" viewBox="0 0 59 61" width="59" xmlns="http://www.w3.org/2000/svg"><path clip-rule="evenodd" d="m17.8006 21.2908c-.6137.9372-1.3221 1.6092-2.0742 2.042-.6949.3994-1.4251.5939-2.1523.6043-.7261.0104-1.4428-.1622-2.1148-.4972-.7282-.363-1.4043-.9175-1.97852-1.6353-.2507 1.1901-.80827 2.3031-1.64255 3.1624-1.0548 1.085-2.54443 1.7611-4.40959 1.6706-.06508-.0028-.12019-.0064-.16533-.0094l-.01567-.001c-.03225-.001-.0645-.0052-.09674-.0146-1.08498-.2943-1.7757-.9268-2.200118-1.6748-.570053-1.0069-.639749-2.2146-.537806-3.0687.088421-.7729.242377-1.4542.446265-2.0503.471229-1.3804 1.207719-2.3166 1.997269-2.8908.68552-.4993 1.41473-.7282 2.05656-.7407-.41714-1.1286-.19141-2.2948.39425-3.2362.28815-.4629.66472-.8707 1.0933-1.1911.43274-.3235.92269-.5596 1.43553-.6772.76666-.1758 1.57285-.0863 2.30515.3714-.1061-1.1547.0822-2.30308.4931-3.33709.5909-1.48858 1.6446-2.74208 2.9439-3.43176.6938-.36824 1.4584-.57733 2.2646-.57837.7448-.00104 1.5177.17684 2.2906.57005.104.05305.2091.11027.3131.17164 1.0569-.98823 2.17-1.54892 3.2654-1.77153 1.0589-.21534 2.095-.11131 3.0448.22989.9435.33912 1.7985.91125 2.5028 1.63838.8779.90709 1.525 2.0576 1.8183 3.29653.621.05202 1.2473.24446 1.8506.61375-.0614-1.1037.1925-2.21156.6918-3.22476.672-1.36168 1.7923-2.55588 3.1946-3.33814.9029-.50348 1.9244-.83739 3.0198-.93518 1.009-.0905 2.0763.01873 3.1675.37761.3079.1009.6179.22261.93.36617 1.5448-1.09226 3.1728-1.672714 4.757-1.857878 1.8007-.2111692 3.5441.090501 5.0421.731291 1.5052.644947 2.7681 1.635267 3.5982 2.799297.5232.73337.8769 1.5354 1.0153 2.36655 1.0423.54197 1.7008 1.42513 2.0316 2.45081.2756.85508.3162 1.80584.156 2.73374-.1591.9238-.516 1.8298-1.0371 2.6017-1.0465 1.551-2.7463 2.5694-4.8361 2.147-.3537.4837-.7729.9019-1.241 1.2587-1.4439 1.1016-3.359 1.627-5.2262 1.6686-1.7799.0395-3.5275-.3641-4.7893-1.1276-.491.674-1.0402 1.2378-1.629 1.6976-1.3835 1.0808-2.9772 1.575-4.5511 1.5791-1.5697.0042-3.1165-.4795-4.4148-1.3565-.4192-.2829-.8124-.6085-1.1733-.9726-.3308 1.3773-1.2036 2.6641-2.557 3.5941-1.4209.9747-3.3735 1.5562-5.7848 1.4251-.0291 0-.0582-.0021-.0873-.0083-1.4179-.284-2.3281-.9009-2.8909-1.6332-.2236-.2902-.3911-.5971-.5128-.9081zm.5784-1.0559c.0156-.0811.0063-.1633-.0239-.2372-.0187-.2892-.001-.5627.0374-.803.0552-.3454.1228-.6741.2019-.9872.4899-1.9494 1.3793-3.0178 2.3623-3.5608.98-.5409 2.067-.5711 2.946-.4306.1737.028.3464.0645.5118.1061v-.0011c.0853.0219.1789.0167.2663-.0218.2101-.0916.3058-.336.2143-.5461-.3412-.7834-.2091-1.6665.2216-2.4529.311-.568.776-1.0829 1.3325-1.47615.5555-.39113 1.1984-.66159 1.8693-.74065.9519-.11235 1.9692.16124 2.8774 1.0215.0988.0978.2455.1425.39.1072.2227-.0552.3589-.27986.3038-.50247-.3058-1.24101-.103-2.54444.4733-3.71159.5992-1.21501 1.5999-2.28126 2.8534-2.9803.8062-.44938 1.7154-.74689 2.688-.83427.8977-.0801 1.8527.01872 2.8357.34224.4307.14147.8644.32559 1.2993.55549.4233.22365.8488.49099 1.2722.8041.1841.13628.4442.09779.5804-.08634.1363-.18412.0978-.44418-.0863-.58045-.3464-.2559-.6918-.48372-1.0371-.68344 1.3148-.84988 2.6817-1.31071 4.0132-1.46674 1.6519-.19349 3.2497.08217 4.6229.66991 1.3658.58462 2.5049 1.47507 3.2476 2.51635.3443.48267.6023.99551.7573 1.52396-.3922-.10819-.8239-.17684-1.2961-.20077-.2289-.01144-.4245.16436-.4359.39321-.0114.22886.1644.42442.3932.43586 1.9827.10091 3.0916 1.12451 3.514 2.43729.233.72297.2652 1.53646.1269 2.34056-.1394.8093-.4515 1.602-.9071 2.2771-.9113 1.3492-2.403 2.2178-4.2234 1.7434-.1675-.0426-.3506.0219-.4504.1738-.3298.5024-.7438.932-1.2182 1.294-1.2972.9893-3.0354 1.4616-4.7383 1.499-1.7049.0375-3.362-.3578-4.497-1.1037-.363-.2392-.6719-.5139-.907-.8228-.1384-.1821-.3995-.2174-.5815-.078-.1821.1383-.2174.3994-.0781.5815.1758.2298.3818.4431.6148.6407-.4452.6107-.9372 1.1173-1.4626 1.5271-1.2295.9602-2.6453 1.4002-4.0413 1.4043-1.4012.0032-2.7868-.4306-3.9498-1.217-.5919-.4005-1.1245-.8905-1.5718-1.4585-.0697-.1009-.1831-.1695-.3152-.1778-.2289-.0146-.4255.1591-.44.388-.0957 1.4626-.905 2.8908-2.3354 3.8728-1.2795.878-3.0541 1.4002-5.2646 1.2816-1.1828-.2403-1.9266-.7365-2.3749-1.3191-.3506-.4556-.5253-.9684-.5909-1.4563zm22.6222-16.68029c.1363.04473.2101.1914.1654.32767-.0447.13628-.1914.21013-.3277.1654-1.0028-.32975-1.9796-.43066-2.8981-.34848-.9955.08946-1.9255.39321-2.7504.853-.1248.0697-.283.02497-.3527-.1009-.0696-.12483-.0249-.28295.101-.35265.8852-.49307 1.8849-.81971 2.9574-.91645.9882-.08842 2.0347.01872 3.1051.37137zm-18.7338 55.35139h9.3258l-2.1023-10.2485c-.0135-.0375-.0218-.077-.0239-.1186l-1.8132-8.8379h-10.7738l-3.9394 19.205h9.3258zm-4.0132-51.99661c.0655-.12795.0146-.28399-.1134-.34952v-.00208c-.7511-.38177-1.499-.55445-2.2199-.55341-.7791.00104-1.5198.20389-2.1918.56069-.1269.06762-.1758.22469-.1082.3516.0677.12691.2247.1758.3516.10819.6013-.31936 1.2598-.50036 1.9474-.5014.6397 0 1.3086.155 1.9848.49932.1279.06553.284.01456.3495-.11339zm-5.7848 25.54421.0166 7.4617h.3475l-.0167-7.4617zm-.31 0 .0166 7.4617h-6.81355v-7.4617zm1.1755 0 .0166 7.4617h.516v-7.4617zm12.9219 4.8912-.0167-7.4616h.3475l.0166 7.4616zm-.31 0-.0167-7.4616h-9.1177v7.4616zm1.1755 0-.0167-7.4616h.6169v7.4616zm1.1047-29.08829c-.2746-1.02464-.827-1.97439-1.5624-2.73376-.62-.63975-1.368-1.14219-2.1877-1.43658-.8124-.29231-1.6987-.38073-2.6027-.19765-.9019.18309-1.8256.63975-2.7202 1.43658.2705.20805.542.44731.8135.72089.1612.16228.1612.42546-.0021.5867-.1623.16123-.4255.16123-.5867-.00208-.2632-.26423-.5316-.49724-.802-.70009-.2747-.20493-.5482-.37553-.8208-.51388-.6543-.33288-1.2993-.48267-1.914-.48267-.6606.00104-1.2941.1758-1.8746.48371-1.1265.59814-2.044 1.6956-2.5631 3.00319-.4962 1.24829-.6273 2.68483-.2299 4.05903.0634.2195-.0624.4494-.283.5139-.1685.0489-.3422-.0135-.4431-.1446-.70632-.9102-1.60197-1.1474-2.42688-.9591-.3953.0905-.77915.2767-1.12347.5347-.34848.26-.65223.5898-.88524.9643-.55965.8987-.70321 2.0555-.02601 3.0916.12483.1924.0697.4494-.12171.5742-.11026.0718-.24342.0842-.35888.0447-.09987-.0343-.20805-.0582-.32248-.0707-.53572-.0614-1.20252.105-1.83915.568-.66367.4826-1.28782 1.2857-1.69872 2.4882-.18516.5441-.32663 1.1672-.40777 1.8777v.0031c-.08634.724-.03329 1.7382.43378 2.5611.31832.5627.84052 1.0402 1.66127 1.2722.05617.0041.1009.0073.13419.0083 1.60302.077 2.87835-.4972 3.77504-1.4199.90606-.9321 1.43658-2.222 1.53956-3.5598.00625-.0759.00937-.1352.01145-.1778.0104-.2289.20492-.4057.43378-.3953.15499.0073.28502.0978.35056.2267.59088 1.0205 1.37938 1.7799 2.25108 2.2137.5565.2777 1.1453.4213 1.7341.413.5877-.0084 1.1807-.1675 1.7486-.4942.8177-.4701 1.5854-1.2899 2.2189-2.5121-.0291-.3735-.0083-.7282.0416-1.0372.0614-.3817.1331-.7344.2143-1.0589.5565-2.2105 1.602-3.4443 2.7691-4.0882 1.1287-.6231 2.3572-.6824 3.3652-.5388-.1498-.8364.0406-1.7019.4671-2.48.3713-.6772.9227-1.28884 1.5832-1.75591.6627-.46811 1.4376-.79162 2.2532-.88732h.0021zm8.1285 21.68699h-2.2626v-.0021c-.2299 0-.4161.1862-.4161.4161v4.1995h-3.7948c-.2299 0-.4161.1862-.4161.4161v9.4339l-1.0673-5.2053c-.0405-.1966-.2132-.3319-.4067-.3319v-.001h-11.45c-.2132 0-.388.1602-.4129.3662l-.9727 4.7435-.5253-2.2553c-.0447-.1924-.2153-.3214-.4046-.3214h-9.31333c-.20493 0-.37553.1477-.40986.3433l-3.33814 14.3428c-.05201.2237.08634.4473.30999.4993.03225.0084.06346.0115.09467.0115h10.99747l-.542 2.6412c-.0458.2236.0988.4431.3235.4889.0281.0052.0562.0083.0832.0083v.0011c3.715 0 7.4297.0046 11.1442.0093h.0008.0007.0008.0008.0008.0007.0008.0008.0008.0008.0007.0008.0008.0008.0007.0008.0008.0008c3.7092.0047 7.4182.0094 11.127.0094h14.5686 6.2113c.2299 0 .4161-.1862.4161-.4161v-24.3667c0-.2299-.1862-.4161-.4161-.4161h-3.0063v-4.1994c0-.2299-.1862-.4161-.4161-.4161h-2.2626v-7.8039h-.001c0-.0593-.0125-.1197-.0395-.1769-.0978-.208-.3454-.2965-.5524-.1987l-12.5984 5.97c-.155.0614-.2652.2112-.2652.388zm.4161.8322h-2.2626v3.7834h17.1495v-3.7834h-2.2625c-.2299 0-.4161-.1862-.4161-.4161v-7.5636l-11.7922 5.5871v1.9765c0 .2299-.1862.4161-.4161.4161zm12.513 23.5345h-14.5686c-.2299 0-.4161.1862-.4161.4161v4.1994h-1.8568l-2.146-10.4596v-13.0748h3.7948 17.9816 3.0063v23.5344h-5.3791v-4.1994c0-.2299-.1862-.4161-.4161-.4161zm-.4161.8322h-13.7364v3.7833h13.7364zm-2.4747-5.1763h4.4523v2.25h-4.4523zm-.4161-.8322h5.2845c.2298 0 .416.1862.416.4161v3.0822c0 .2299-.1862.4161-.416.4161h-5.2845c-.2299 0-.4161-.1862-.4161-.4161v-3.0822c0-.2299.1862-.4161.4161-.4161zm-7.1152 0h-5.2845c-.2299 0-.4161.1862-.4161.4161v3.0822c0 .2299.1862.4161.4161.4161h5.2845c.2298 0 .416-.1862.416-.4161v-3.0822c0-.2299-.1862-.4161-.416-.4161zm-.4161.8322h-4.4523v2.25h4.4523zm7.5313-2.1325h5.2845c.2298 0 .416-.1862.416-.4161v-3.0822c0-.2299-.1862-.4161-.416-.4161h-5.2845c-.2299 0-.4161.1862-.4161.4161v3.0822c0 .2299.1862.4161.4161.4161zm.4161-.8322h4.4523v-2.25h-4.4523zm-7.9474 0h-4.4523v-2.25h4.4523zm.4161.8322h-5.2845c-.2299 0-.4161-.1862-.4161-.4161v-3.0822c0-.2299.1862-.4161.4161-.4161h5.2845c.2298 0 .416.1862.416.4161v3.0822c0 .2299-.1862.4161-.416.4161zm7.5313-8.2876h4.4523v2.25h-4.4523zm-.4161-.8322h5.2845c.2298 0 .416.1862.416.4161v3.0822c0 .2299-.1862.4161-.416.4161h-5.2845c-.2299 0-.4161-.1862-.4161-.4161v-3.0822c0-.2299.1862-.4161.4161-.4161zm-7.1152 0h-5.2845c-.2299 0-.4161.1862-.4161.4161v3.0822c0 .2299.1862.4161.4161.4161h5.2845c.2298 0 .416-.1862.416-.4161v-3.0822c0-.2299-.1862-.4161-.416-.4161zm-.4161.8322h-4.4523v2.25h4.4523zm-24.1649-7.9235h-9.33722c-.2299 0-.4161.1862-.4161.4161v8.2938c0 .2299.1862.4161.4161.4161h9.33722c.2299 0 .4161-.1862.4161-.4161v-8.2938c0-.2299-.1862-.4161-.4161-.4161zm2.1127-2.5705h11.7433c.2299 0 .4161.1862.4161.4161v8.2939c0 .2299-.1862.4161-.4161.4161h-11.7433c-.2299 0-.4161-.1862-.4161-.4161v-8.2939c0-.2299.1862-.4161.4161-.4161zm-1.6592 16.7906c.0052.0249.0136.0478.0229.0707l-2.0212 9.8542h-10.64477l3.14986-13.5325h8.65381z" fill="#000" fill-rule="evenodd"/></svg>

<svg width="59" height="61" viewBox="0 0 59 61" fill="none" xmlns="http://www.w3.org/2000/svg">
<path fill-rule="evenodd" clip-rule="evenodd" d="M17.8006 21.2908C17.1869 22.228 16.4785 22.9 15.7264 23.3328C15.0315 23.7322 14.3013 23.9267 13.5741 23.9371C12.848 23.9475 12.1313 23.7749 11.4593 23.4399C10.7311 23.0769 10.055 22.5224 9.48078 21.8046C9.23008 22.9947 8.67251 24.1077 7.83823 24.967C6.78343 26.052 5.2938 26.7281 3.42864 26.6376C3.36356 26.6348 3.30845 26.6312 3.26331 26.6282L3.24764 26.6272C3.21539 26.6262 3.18314 26.622 3.1509 26.6126C2.06592 26.3183 1.3752 25.6858 0.950782 24.9378C0.380729 23.9309 0.311033 22.7232 0.412976 21.8691C0.501397 21.0962 0.655353 20.4149 0.859241 19.8188C1.33047 18.4384 2.06696 17.5022 2.85651 16.928C3.54203 16.4287 4.27124 16.1998 4.91307 16.1873C4.49593 15.0587 4.72166 13.8925 5.30732 12.9511C5.59547 12.4882 5.97204 12.0804 6.40062 11.76C6.83336 11.4365 7.32331 11.2004 7.83615 11.0828C8.60281 10.907 9.409 10.9965 10.1413 11.4542C10.0352 10.2995 10.2235 9.15112 10.6344 8.11711C11.2253 6.62853 12.279 5.37503 13.5783 4.68535C14.2721 4.31711 15.0367 4.10802 15.8429 4.10698C16.5877 4.10594 17.3606 4.28382 18.1335 4.67703C18.2375 4.73008 18.3426 4.7873 18.4466 4.84867C19.5035 3.86044 20.6166 3.29975 21.712 3.07714C22.7709 2.8618 23.807 2.96583 24.7568 3.30703C25.7003 3.64615 26.5553 4.21828 27.2596 4.94541C28.1375 5.8525 28.7846 7.00301 29.0779 8.24194C29.6989 8.29396 30.3252 8.4864 30.9285 8.85569C30.8671 7.75199 31.121 6.64413 31.6203 5.63093C32.2923 4.26925 33.4126 3.07505 34.8149 2.29279C35.7178 1.78931 36.7393 1.4554 37.8347 1.35761C38.8437 1.26711 39.911 1.37634 41.0022 1.73522C41.3101 1.83612 41.6201 1.95783 41.9322 2.10139C43.477 1.00913 45.105 0.428676 46.6892 0.243512C48.4899 0.0323428 50.2333 0.334013 51.7313 0.974803C53.2365 1.61975 54.4994 2.61007 55.3295 3.7741C55.8527 4.50747 56.2064 5.3095 56.3448 6.14065C57.3871 6.68262 58.0456 7.56578 58.3764 8.59146C58.652 9.44654 58.6926 10.3973 58.5324 11.3252C58.3733 12.249 58.0164 13.155 57.4953 13.9269C56.4488 15.4779 54.749 16.4963 52.6592 16.0739C52.3055 16.5576 51.8863 16.9758 51.4182 17.3326C49.9743 18.4342 48.0592 18.9596 46.192 19.0012C44.4121 19.0407 42.6645 18.6371 41.4027 17.8736C40.9117 18.5476 40.3625 19.1114 39.7737 19.5712C38.3902 20.652 36.7965 21.1462 35.2226 21.1503C33.6529 21.1545 32.1061 20.6708 30.8078 19.7938C30.3886 19.5109 29.9954 19.1853 29.6345 18.8212C29.3037 20.1985 28.4309 21.4853 27.0775 22.4153C25.6566 23.39 23.704 23.9715 21.2927 23.8404C21.2636 23.8404 21.2345 23.8383 21.2054 23.8321C19.7875 23.5481 18.8773 22.9312 18.3145 22.1989C18.0909 21.9087 17.9234 21.6018 17.8017 21.2908H17.8006ZM18.379 20.2349C18.3946 20.1538 18.3853 20.0716 18.3551 19.9977C18.3364 19.7085 18.3541 19.435 18.3925 19.1947C18.4477 18.8493 18.5153 18.5206 18.5944 18.2075C19.0843 16.2581 19.9737 15.1897 20.9567 14.6467C21.9367 14.1058 23.0237 14.0756 23.9027 14.2161C24.0764 14.2441 24.2491 14.2806 24.4145 14.3222V14.3211C24.4998 14.343 24.5934 14.3378 24.6808 14.2993C24.8909 14.2077 24.9866 13.9633 24.8951 13.7532C24.5539 12.9698 24.686 12.0867 25.1167 11.3003C25.4277 10.7323 25.8927 10.2174 26.4492 9.82415C27.0047 9.43302 27.6476 9.16256 28.3185 9.0835C29.2704 8.97115 30.2877 9.24474 31.1959 10.105C31.2947 10.2028 31.4414 10.2475 31.5859 10.2122C31.8086 10.157 31.9448 9.93234 31.8897 9.70973C31.5839 8.46872 31.7867 7.16529 32.363 5.99814C32.9622 4.78313 33.9629 3.71688 35.2164 3.01784C36.0226 2.56846 36.9318 2.27095 37.9044 2.18357C38.8021 2.10347 39.7571 2.20229 40.7401 2.52581C41.1708 2.66728 41.6045 2.8514 42.0394 3.0813C42.4627 3.30495 42.8882 3.57229 43.3116 3.8854C43.4957 4.02168 43.7558 3.98319 43.892 3.79906C44.0283 3.61494 43.9898 3.35488 43.8057 3.21861C43.4593 2.96271 43.1139 2.73489 42.7686 2.53517C44.0834 1.68529 45.4503 1.22446 46.7818 1.06843C48.4337 0.87494 50.0315 1.1506 51.4047 1.73834C52.7705 2.32296 53.9096 3.21341 54.6523 4.25469C54.9966 4.73736 55.2546 5.2502 55.4096 5.77865C55.0174 5.67046 54.5857 5.60181 54.1135 5.57788C53.8846 5.56644 53.689 5.74224 53.6776 5.97109C53.6662 6.19995 53.842 6.39551 54.0708 6.40695C56.0535 6.50786 57.1624 7.53146 57.5848 8.84424C57.8178 9.56721 57.85 10.3807 57.7117 11.1848C57.5723 11.9941 57.2602 12.7868 56.8046 13.4619C55.8933 14.8111 54.4016 15.6797 52.5812 15.2053C52.4137 15.1627 52.2306 15.2272 52.1308 15.3791C51.801 15.8815 51.387 16.3111 50.9126 16.6731C49.6154 17.6624 47.8772 18.1347 46.1743 18.1721C44.4694 18.2096 42.8123 17.8143 41.6773 17.0684C41.3143 16.8292 41.0054 16.5545 40.7703 16.2456C40.6319 16.0635 40.3708 16.0282 40.1888 16.1676C40.0067 16.3059 39.9714 16.567 40.1107 16.7491C40.2865 16.9789 40.4925 17.1922 40.7255 17.3898C40.2803 18.0005 39.7883 18.5071 39.2629 18.9169C38.0334 19.8771 36.6176 20.3171 35.2216 20.3212C33.8204 20.3244 32.4348 19.8906 31.2718 19.1042C30.6799 18.7037 30.1473 18.2137 29.7 17.6457C29.6303 17.5448 29.5169 17.4762 29.3848 17.4679C29.1559 17.4533 28.9593 17.627 28.9448 17.8559C28.8491 19.3185 28.0398 20.7467 26.6094 21.7287C25.3299 22.6067 23.5553 23.1289 21.3448 23.0103C20.162 22.77 19.4182 22.2738 18.9699 21.6912C18.6193 21.2356 18.4446 20.7228 18.379 20.2349ZM41.0012 3.55461C41.1375 3.59934 41.2113 3.74601 41.1666 3.88228C41.1219 4.01856 40.9752 4.09241 40.8389 4.04768C39.8361 3.71793 38.8593 3.61702 37.9408 3.6992C36.9453 3.78866 36.0153 4.09241 35.1904 4.5522C35.0656 4.6219 34.9074 4.57717 34.8377 4.4513C34.7681 4.32647 34.8128 4.16835 34.9387 4.09865C35.8239 3.60558 36.8236 3.27894 37.8961 3.1822C38.8843 3.09378 39.9308 3.20092 41.0012 3.55357V3.55461ZM22.2674 58.906H31.5932L29.4909 48.6575C29.4774 48.62 29.4691 48.5805 29.467 48.5389L27.6538 39.701H16.88L12.9406 58.906H22.2664H22.2674ZM18.2542 6.90939C18.3197 6.78144 18.2688 6.6254 18.1408 6.55987V6.55779C17.3897 6.17602 16.6418 6.00334 15.9209 6.00438C15.1418 6.00542 14.4011 6.20827 13.7291 6.56507C13.6022 6.63269 13.5533 6.78976 13.6209 6.91667C13.6886 7.04358 13.8456 7.09247 13.9725 7.02486C14.5738 6.7055 15.2323 6.5245 15.9199 6.52346C16.5596 6.52346 17.2285 6.67846 17.9047 7.02278C18.0326 7.08831 18.1887 7.03734 18.2542 6.90939ZM12.4694 32.4536L12.486 39.9153H12.8335L12.8168 32.4536H12.4694ZM12.1594 32.4536L12.176 39.9153H5.36245V32.4536H12.1594ZM13.3349 32.4536L13.3515 39.9153H13.8675V32.4536H13.3349ZM26.2568 37.3448L26.2401 29.8832H26.5876L26.6042 37.3448H26.2568ZM25.9468 37.3448L25.9301 29.8832H16.8124V37.3448H25.9468ZM27.1223 37.3448L27.1056 29.8832H27.7225V37.3448H27.1223ZM28.227 8.25651C27.9524 7.23187 27.4 6.28212 26.6646 5.52275C26.0446 4.883 25.2966 4.38056 24.4769 4.08617C23.6645 3.79386 22.7782 3.70544 21.8742 3.88852C20.9723 4.07161 20.0486 4.52827 19.154 5.3251C19.4245 5.53315 19.696 5.77241 19.9675 6.04599C20.1287 6.20827 20.1287 6.47145 19.9654 6.63269C19.8031 6.79392 19.5399 6.79392 19.3787 6.63061C19.1155 6.36638 18.8471 6.13337 18.5767 5.93052C18.302 5.72559 18.0285 5.55499 17.7559 5.41664C17.1016 5.08376 16.4566 4.93397 15.8419 4.93397C15.1813 4.93501 14.5478 5.10977 13.9673 5.41768C12.8408 6.01582 11.9233 7.11328 11.4042 8.42087C10.908 9.66916 10.7769 11.1057 11.1743 12.4799C11.2377 12.6994 11.1119 12.9293 10.8913 12.9938C10.7228 13.0427 10.5491 12.9803 10.4482 12.8492C9.74188 11.939 8.84623 11.7018 8.02132 11.8901C7.62602 11.9806 7.24217 12.1668 6.89785 12.4248C6.54937 12.6848 6.24562 13.0146 6.01261 13.3891C5.45296 14.2878 5.3094 15.4446 5.9866 16.4807C6.11143 16.6731 6.0563 16.9301 5.86489 17.0549C5.75463 17.1267 5.62147 17.1391 5.50601 17.0996C5.40614 17.0653 5.29796 17.0414 5.18353 17.0289C4.64781 16.9675 3.98101 17.1339 3.34438 17.5969C2.68071 18.0795 2.05656 18.8826 1.64566 20.0851C1.4605 20.6292 1.31903 21.2523 1.23789 21.9628V21.9659C1.15155 22.6899 1.2046 23.7041 1.67167 24.527C1.98999 25.0897 2.51219 25.5672 3.33294 25.7992C3.38911 25.8033 3.43384 25.8065 3.46713 25.8075C5.07015 25.8845 6.34548 25.3103 7.24217 24.3876C8.14823 23.4555 8.67875 22.1656 8.78173 20.8278C8.78798 20.7519 8.7911 20.6926 8.79318 20.65C8.80358 20.4211 8.9981 20.2443 9.22696 20.2547C9.38195 20.262 9.51198 20.3525 9.57752 20.4814C10.1684 21.5019 10.9569 22.2613 11.8286 22.6951C12.3851 22.9728 12.9739 23.1164 13.5627 23.1081C14.1504 23.0997 14.7434 22.9406 15.3113 22.6139C16.129 22.1438 16.8967 21.324 17.5302 20.1018C17.5011 19.7283 17.5219 19.3736 17.5718 19.0646C17.6332 18.6829 17.7049 18.3302 17.7861 18.0057C18.3426 15.7952 19.3881 14.5614 20.5552 13.9175C21.6839 13.2944 22.9124 13.2351 23.9204 13.3787C23.7706 12.5423 23.961 11.6768 24.3875 10.8987C24.7588 10.2215 25.3102 9.60986 25.9707 9.14279C26.6334 8.67468 27.4083 8.35117 28.2239 8.25547H28.226L28.227 8.25651ZM36.3555 29.9435H34.0929V29.9414C33.863 29.9414 33.6768 30.1276 33.6768 30.3575V34.557H29.882C29.6521 34.557 29.4659 34.7432 29.4659 34.9731V44.407L28.3986 39.2017C28.3581 39.0051 28.1854 38.8698 27.9919 38.8698V38.8688H16.5419C16.3287 38.8688 16.1539 39.029 16.129 39.235L15.1563 43.9785L14.631 41.7232C14.5863 41.5308 14.4157 41.4018 14.2264 41.4018H4.91307C4.70814 41.4018 4.53754 41.5495 4.50321 41.7451L1.16507 56.0879C1.11306 56.3116 1.25141 56.5352 1.47506 56.5872C1.50731 56.5956 1.53852 56.5987 1.56973 56.5987H12.5672L12.0252 59.2399C11.9794 59.4635 12.124 59.683 12.3487 59.7288C12.3768 59.734 12.4049 59.7371 12.4319 59.7371V59.7382C16.1469 59.7382 19.8616 59.7428 23.5761 59.7475H23.5769H23.5776H23.5784H23.5792H23.58H23.5807H23.5815H23.5823H23.5831H23.5839H23.5846H23.5854H23.5862H23.587H23.5877H23.5885H23.5893H23.5901C27.2993 59.7522 31.0083 59.7569 34.7171 59.7569H49.2857H55.497C55.7269 59.7569 55.9131 59.5707 55.9131 59.3408V34.9741C55.9131 34.7442 55.7269 34.558 55.497 34.558H52.4907V30.3586C52.4907 30.1287 52.3045 29.9425 52.0746 29.9425H49.812V22.1386H49.811C49.811 22.0793 49.7985 22.0189 49.7715 21.9617C49.6737 21.7537 49.4261 21.6652 49.2191 21.763L36.6207 27.733C36.4657 27.7944 36.3555 27.9442 36.3555 28.121V29.9435ZM36.7716 30.7757H34.509V34.5591H51.6585V30.7757H49.396C49.1661 30.7757 48.9799 30.5895 48.9799 30.3596V22.796L37.1877 28.3831V30.3596C37.1877 30.5895 37.0015 30.7757 36.7716 30.7757ZM49.2846 54.3102H34.716C34.4861 54.3102 34.2999 54.4964 34.2999 54.7263V58.9257H32.4431L30.2971 48.4661V35.3913H34.0919H52.0735H55.0798V58.9257H49.7007V54.7263C49.7007 54.4964 49.5145 54.3102 49.2846 54.3102ZM48.8685 55.1424H35.1321V58.9257H48.8685V55.1424ZM46.3938 49.9661H50.8461V52.2161H46.3938V49.9661ZM45.9777 49.1339H51.2622C51.492 49.1339 51.6782 49.3201 51.6782 49.55V52.6322C51.6782 52.8621 51.492 53.0483 51.2622 53.0483H45.9777C45.7478 53.0483 45.5616 52.8621 45.5616 52.6322V49.55C45.5616 49.3201 45.7478 49.1339 45.9777 49.1339ZM38.8625 49.1339H33.578C33.3481 49.1339 33.1619 49.3201 33.1619 49.55V52.6322C33.1619 52.8621 33.3481 53.0483 33.578 53.0483H38.8625C39.0923 53.0483 39.2785 52.8621 39.2785 52.6322V49.55C39.2785 49.3201 39.0923 49.1339 38.8625 49.1339ZM38.4464 49.9661H33.9941V52.2161H38.4464V49.9661ZM45.9777 47.8336H51.2622C51.492 47.8336 51.6782 47.6474 51.6782 47.4175V44.3353C51.6782 44.1054 51.492 43.9192 51.2622 43.9192H45.9777C45.7478 43.9192 45.5616 44.1054 45.5616 44.3353V47.4175C45.5616 47.6474 45.7478 47.8336 45.9777 47.8336ZM46.3938 47.0014H50.8461V44.7514H46.3938V47.0014ZM38.4464 47.0014H33.9941V44.7514H38.4464V47.0014ZM38.8625 47.8336H33.578C33.3481 47.8336 33.1619 47.6474 33.1619 47.4175V44.3353C33.1619 44.1054 33.3481 43.9192 33.578 43.9192H38.8625C39.0923 43.9192 39.2785 44.1054 39.2785 44.3353V47.4175C39.2785 47.6474 39.0923 47.8336 38.8625 47.8336ZM46.3938 39.546H50.8461V41.796H46.3938V39.546ZM45.9777 38.7138H51.2622C51.492 38.7138 51.6782 38.9 51.6782 39.1299V42.2121C51.6782 42.442 51.492 42.6282 51.2622 42.6282H45.9777C45.7478 42.6282 45.5616 42.442 45.5616 42.2121V39.1299C45.5616 38.9 45.7478 38.7138 45.9777 38.7138ZM38.8625 38.7138H33.578C33.3481 38.7138 33.1619 38.9 33.1619 39.1299V42.2121C33.1619 42.442 33.3481 42.6282 33.578 42.6282H38.8625C39.0923 42.6282 39.2785 42.442 39.2785 42.2121V39.1299C39.2785 38.9 39.0923 38.7138 38.8625 38.7138ZM38.4464 39.546H33.9941V41.796H38.4464V39.546ZM14.2815 31.6225H4.94428C4.71438 31.6225 4.52818 31.8087 4.52818 32.0386V40.3324C4.52818 40.5623 4.71438 40.7485 4.94428 40.7485H14.2815C14.5114 40.7485 14.6976 40.5623 14.6976 40.3324V32.0386C14.6976 31.8087 14.5114 31.6225 14.2815 31.6225ZM16.3942 29.052H28.1375C28.3674 29.052 28.5536 29.2382 28.5536 29.4681V37.762C28.5536 37.9919 28.3674 38.1781 28.1375 38.1781H16.3942C16.1643 38.1781 15.9781 37.9919 15.9781 37.762V29.4681C15.9781 29.2382 16.1643 29.052 16.3942 29.052ZM14.735 45.8426C14.7402 45.8675 14.7486 45.8904 14.7579 45.9133L12.7367 55.7675H2.09193L5.24179 42.235H13.8956L14.735 45.8426Z" fill="black"/>
</svg>
